icon-themes/sifr_svg/cmd/sc_stylenewbyexample.svg

<svg viewBox="0 0 16 16" xmlns="http://www.w3.org/2000/svg"><path d="m1 0c-.554 0-1 .446-1 1v2c0 .554.446 1 1 1h1v-1c0-.5522847.4477153-1 1-1h2v7.5332031l3 1.5996089v-9.132812h2c.552285 0 1 .4477153 1 1v1h1c.554 0 1-.446 1-1v-2c0-.554-.446-1-1-1zm10 5v2h-2v2h2v2h2v-2h2v-2h-2v-2zm-11 3v8h15zm2 3 5 3h-5z" fill="#555753"/></svg>

<svg xmlns="http://www.w3.org/2000/svg" viewBox="0 0 16 16">
  <path
     style="fill:#555753"
     d="M 1 0 C 0.446 0 0 0.446 0 1 L 0 3 C 0 3.554 0.446 4 1 4 L 2 4 L 2 3 C 2 2.4477153 2.4477153 2 3 2 L 5 2 L 5 9.5332031 L 8 11.132812 L 8 2 L 10 2 C 10.552285 2 11 2.4477153 11 3 L 11 4 L 12 4 C 12.554 4 13 3.554 13 3 L 13 1 C 13 0.446 12.554 0 12 0 L 1 0 z M 11 5 L 11 7 L 9 7 L 9 9 L 11 9 L 11 11 L 13 11 L 13 9 L 15 9 L 15 7 L 13 7 L 13 5 L 11 5 z M 0 8 L 0 16 L 15 16 L 0 8 z M 2 11 L 7 14 L 2 14 L 2 11 z "
     />
</svg>
